X:1
T:[ID 8-126]
T:[ID 8-126]
T:Bezeichnung standardisiert: Anglaise Angeloise
T:Urheber unbekannt Datum in der hier transkribierten schriftlichen Quelle: 1792
C:Urheber unbekannt
C:Datum in der hier transkribierten schriftlichen Quelle: 1792
L:1/8
M:3/8
K:G
V:1 treble 
V:1
 G/A/B/c/d/g/ | d2 B | c/d/c/B/A | B/c/B/A/G | G/A/B/c/d/g/ | d2 B | c/d/c/B/A/F/ | G3 :: %8
 (d/g/)(b/g/)(d/B/) | dcB | (d/g/)(b/g/)(d/B/) | dcB | G/A/B/c/d/g/ | d2 B | c/d/c/B/A/F/ | G3 :: %16
!p! B2 c/B/ | BAG | AGF | G3 | g/g/g/g/d/d/ | e/e/e/e/B/B/ | cAd | G3 :| %24

